src/images/single-assets/BOB.svg

<svg width="200" height="200" viewBox="0 0 200 200" fill="none" xmlns="http://www.w3.org/2000/svg">
<circle cx="100" cy="100" r="100" fill="url(#paint0_linear_13_7398)"/>
<path fill-rule="evenodd" clip-rule="evenodd" d="M93.0704 39.5973H106.929H108.411V39.6291C126.449 40.4046 140.835 55.2738 140.835 73.503C140.835 81.9702 137.731 89.7124 132.599 95.6541C142.849 101.704 149.726 112.862 149.726 125.625C149.726 144.803 134.202 160.356 115.035 160.403V160.403H63.087V160.054H63.0869V57.0296V39.5973H93.0704ZM92.5478 61.8685C92.5478 59.9154 93.8589 58.2684 95.6489 57.7598C97.1134 57.2839 98.7862 57.6277 99.9497 58.7911L111.46 70.3012C111.556 70.3818 111.65 70.4674 111.74 70.5579C113.392 72.2094 113.392 74.8869 111.74 76.5383L100.019 88.26C99.1665 89.1121 98.0411 89.5246 96.9245 89.4973C96.8894 89.4982 96.8541 89.4986 96.8187 89.4986C94.4599 89.4986 92.5478 87.5865 92.5478 85.2277V61.8685ZM112.944 137.26C112.944 139.213 111.632 140.86 109.842 141.369C108.378 141.845 106.705 141.501 105.542 140.337L94.033 128.829C93.9361 128.748 93.8419 128.662 93.7508 128.571C92.0993 126.919 92.0993 124.242 93.7508 122.59L105.472 110.868C106.325 110.016 107.45 109.604 108.566 109.631C108.588 109.631 108.609 109.63 108.631 109.63C108.645 109.63 108.659 109.63 108.673 109.63C111.031 109.63 112.944 111.542 112.944 113.901V137.26Z" fill="white"/>
<defs>
<linearGradient id="paint0_linear_13_7398" x1="0.329313" y1="22.8238" x2="245.23" y2="141.405" gradientUnits="userSpaceOnUse">
<stop offset="0.053951" stop-color="#6D5CFF"/>
<stop offset="0.559189" stop-color="#E86EFF"/>
<stop offset="0.923794" stop-color="#FFD66E"/>
</linearGradient>
</defs>
</svg>

<svg xmlns="http://www.w3.org/2000/svg" width="200" height="200" fill="none"><circle cx="100" cy="100" r="100" fill="url(#a)"/><path fill="#fff" fill-rule="evenodd" d="M93.07 39.597h15.341v.032c18.038.776 32.424 15.645 32.424 33.874 0 8.467-3.104 16.21-8.236 22.151 10.25 6.05 17.127 17.208 17.127 29.971 0 19.178-15.524 34.731-34.691 34.778H63.087V39.597zm-.522 22.271c0-1.953 1.31-3.6 3.1-4.108a4.23 4.23 0 0 1 4.302 1.031l11.51 11.51q.145.12.28.257a4.23 4.23 0 0 1 0 5.98L100.019 88.26a4.22 4.22 0 0 1-3.095 1.237l-.105.002a4.27 4.27 0 0 1-4.271-4.271zm20.396 75.392c0 1.953-1.312 3.6-3.102 4.109a4.23 4.23 0 0 1-4.3-1.032l-11.509-11.508a4.23 4.23 0 0 1-.282-6.239l11.721-11.722a4.22 4.22 0 0 1 3.094-1.237l.065-.001h.042a4.27 4.27 0 0 1 4.271 4.271z" clip-rule="evenodd"/><defs><linearGradient id="a" x1=".329" x2="245.23" y1="22.824" y2="141.405" gradientUnits="userSpaceOnUse"><stop offset=".054" stop-color="#6D5CFF"/><stop offset=".559" stop-color="#E86EFF"/><stop offset=".924" stop-color="#FFD66E"/></linearGradient></defs></svg>
